assets/post/images/crypt34.svg

<svg xmlns="http://www.w3.org/2000/svg" width="2857" height="1863" overflow="hidden"><defs><clipPath id="a"><path d="M395 131h2857v1863H395z"/></clipPath></defs><g clip-path="url(#a)" transform="translate(-395 -131)"><path fill="#d74514" fill-opacity=".4" fill-rule="evenodd" d="M1389 1062.5c0-514.453 417.05-931.5 931.5-931.5S3252 548.047 3252 1062.5c0 514.45-417.05 931.5-931.5 931.5S1389 1576.95 1389 1062.5"/><path fill="#d74514" fill-opacity=".4" fill-rule="evenodd" d="M1543 1076c0-328.609 266.39-595 595-595s595 266.391 595 595c0 328.61-266.39 595-595 595s-595-266.39-595-595"/><path fill="#d74514" fill-opacity=".4" fill-rule="evenodd" d="M395 1076c0-430.23 348.77-779 779-779s779 348.77 779 779-348.77 779-779 779-779-348.77-779-779"/><path fill="#d74514" fill-rule="evenodd" d="M753.276 1066.19h30.558v40.69c0 1.83.946 2.75 2.837 2.75h2.756q3.242 0 3.728-5.1c.216-2.11.46-5.54.73-10.3 2.161.97 4.188 1.81 6.079 2.51-.324 3.95-.676 7.27-1.054 9.97q-1.053 8.76-8.754 8.76h-5.593c-4.701 0-7.051-2.49-7.051-7.46v-35.99h-17.913v11.76c0 14.69-5.269 25.91-15.806 33.63-.757-1.02-2.351-2.62-4.782-4.78 9.51-6.59 14.265-16.16 14.265-28.69Zm-22.938-28.29h6.241v15.89h8.916v5.59h-8.916v15.64c3.242-1 6.512-2.02 9.808-3.08 0 2.54.054 4.65.162 6.32-3.377 1.06-6.701 2.11-9.97 3.16v25.29c0 6.06-2.729 9.11-8.186 9.16q-2.756.09-7.701 0c-.324-2.27-.675-4.56-1.053-6.89 3.026.33 5.43.49 7.214.49 2.323 0 3.485-1.24 3.485-3.73v-22.29q-5.431 1.785-10.699 3.57l-.811-6.73q5.714-1.62 11.51-3.36v-17.55h-10.456v-5.59h10.456Zm38.501-1.22c2.323 3.89 4.242 7.38 5.755 10.46l-5.269 2.51h26.424v5.84h-48.633v-5.84h21.399c-2-4.16-3.783-7.56-5.35-10.21Z"/><text x="718.828" y="1107.32" fill-opacity="0" font-family="Arial,Arial_MSFontService,sans-serif" font-size="80.731">抗</text><text fill="#d74514" font-family="Microsoft YaHei,Microsoft YaHei_MSFontService,sans-serif" font-size="83" font-weight="700" transform="translate(800.112 1106)">原像攻击</text><path fill="#fff" fill-rule="evenodd" d="M2108.48 1066.19h30.55v40.69c0 1.83.95 2.75 2.84 2.75h2.76c2.16 0 3.4-1.7 3.73-5.1.21-2.11.45-5.54.72-10.3 2.17.97 4.19 1.81 6.08 2.51-.32 3.95-.67 7.27-1.05 9.97-.7 5.84-3.62 8.76-8.75 8.76h-5.6c-4.7 0-7.05-2.49-7.05-7.46v-35.99h-17.91v11.76c0 14.69-5.27 25.91-15.81 33.63-.75-1.02-2.35-2.62-4.78-4.78 9.51-6.59 14.27-16.16 14.27-28.69Zm-22.94-28.29h6.24v15.89h8.92v5.59h-8.92v15.64c3.24-1 6.51-2.02 9.81-3.08 0 2.54.05 4.65.16 6.32-3.38 1.06-6.7 2.11-9.97 3.16v25.29c0 6.06-2.73 9.11-8.19 9.16-1.83.06-4.4.06-7.7 0-.32-2.27-.67-4.56-1.05-6.89 3.02.33 5.43.49 7.21.49 2.33 0 3.49-1.24 3.49-3.73v-22.29c-3.62 1.19-7.19 2.38-10.7 3.57l-.81-6.73c3.81-1.08 7.64-2.2 11.51-3.36v-17.55h-10.46v-5.59h10.46Zm38.5-1.22c2.32 3.89 4.24 7.38 5.75 10.46l-5.26 2.51h26.42v5.84h-48.63v-5.84h21.39c-1.99-4.16-3.78-7.56-5.35-10.21Z"/><text x="2074.03" y="1107.32" fill-opacity="0" font-family="Arial,Arial_MSFontService,sans-serif" font-size="80.731">抗</text><text fill="#fff" font-family="Microsoft YaHei,Microsoft YaHei_MSFontService,sans-serif" font-size="83" font-weight="700" transform="translate(2155.31 1106)">强碰撞攻击</text><path fill="#d74514" fill-rule="evenodd" d="M2133.43 312.902h30.56v40.689c0 1.837.95 2.756 2.84 2.756h2.75c2.16 0 3.41-1.702 3.73-5.106.22-2.108.46-5.539.73-10.294 2.16.972 4.19 1.81 6.08 2.512-.32 3.945-.68 7.268-1.05 9.97-.71 5.836-3.62 8.754-8.76 8.754h-5.59q-7.05 0-7.05-7.457v-35.988h-17.92v11.753c0 14.698-5.26 25.91-15.8 33.637-.76-1.026-2.35-2.62-4.78-4.782 9.51-6.592 14.26-16.157 14.26-28.693Zm-22.94-28.288h6.25V300.5h8.91v5.593h-8.91v15.644c3.24-1 6.51-2.027 9.8-3.08 0 2.539.06 4.647.17 6.322a1005 1005 0 0 0-9.97 3.161v25.289q0 9.078-8.19 9.159c-1.84.054-4.41.054-7.7 0a393 393 0 0 0-1.06-6.889c3.03.324 5.44.486 7.22.486q3.48 0 3.48-3.729v-22.29c-3.62 1.189-7.18 2.378-10.7 3.567l-.81-6.728c3.81-1.08 7.65-2.202 11.51-3.364v-17.548h-10.45V300.5h10.45Zm38.51-1.216c2.32 3.89 4.24 7.376 5.75 10.456l-5.27 2.513h26.43v5.836h-48.64v-5.836h21.4c-2-4.161-3.78-7.566-5.35-10.213Z"/><text x="2098.98" y="354.037" fill-opacity="0" font-family="Arial,Arial_MSFontService,sans-serif" font-size="80.731">抗</text><path fill="#d74514" fill-rule="evenodd" d="M2208.07 340.622c-.16 2.648-.3 4.729-.4 6.242a732 732 0 0 0-24.65 5.998l-.73-6.485c7.35-1.351 15.95-3.269 25.78-5.755m40.04-1.54q-.165 4.134-.24 6.485-10.29 2.675-25.05 7.052l-.97-6.566c9.19-2.161 17.94-4.485 26.26-6.971m-21.64-11.915q6.885 2.595 15.48 6.404a126 126 0 0 0-3.08 5.43q-6.81-3.404-15.24-7.051Zm-36.72 0q6.735 2.757 14.67 6.647c-1.29 2.107-2.4 3.945-3.32 5.512q-7.38-4.215-14.43-7.376Zm34.61-38.987h31.86v23.911h-6.08v-2.675h-18.48l-1.95 10.294h28.94q-.645 19.291-1.38 30.072c-.38 8.591-4.7 12.887-12.97 12.887-4.16 0-7.89-.081-11.18-.243-.27-2.053-.68-4.296-1.22-6.727 4.32.54 8.27.81 11.83.81q6.975 0 7.38-6.971c.49-6.7.86-14.779 1.14-24.235h-29.43l4.06-21.479h23.26v-10.051h-25.78Zm-39.23 0h32.18v23.911h-6.08v-2.675h-17.67l-1.86 10.294h25.93q-.645 19.454-1.29 30.396c-.38 8.43-4.78 12.644-13.21 12.644-3.3 0-6.97-.081-11.03-.243-.27-2.485-.67-4.728-1.21-6.727 4.54.54 8.45.81 11.75.81 4.81 0 7.32-2.458 7.54-7.376.54-6.754.92-14.725 1.13-23.911h-26.42l3.89-21.479h22.45v-10.051h-26.1Z"/><text x="2182.29" y="353.429" fill-opacity="0" font-family="Arial,Arial_MSFontService,sans-serif" font-size="74.57">弱</text><text fill="#d74514" font-family="Microsoft YaHei,Microsoft YaHei_MSFontService,sans-serif" font-size="83" font-weight="700" transform="translate(2262.77 353)">碰撞攻击</text></g></svg>

<svg width="2857" height="1863" xmlns="http://www.w3.org/2000/svg" xmlns:xlink="http://www.w3.org/1999/xlink" overflow="hidden"><defs><clipPath id="clip0"><rect x="395" y="131" width="2857" height="1863"/></clipPath></defs><g clip-path="url(#clip0)" transform="translate(-395 -131)"><path d="M1389 1062.5C1389 548.047 1806.05 131 2320.5 131 2834.95 131 3252 548.047 3252 1062.5 3252 1576.95 2834.95 1994 2320.5 1994 1806.05 1994 1389 1576.95 1389 1062.5Z" fill="#D74514" fill-rule="evenodd" fill-opacity="0.4"/><path d="M1543 1076C1543 747.391 1809.39 481 2138 481 2466.61 481 2733 747.391 2733 1076 2733 1404.61 2466.61 1671 2138 1671 1809.39 1671 1543 1404.61 1543 1076Z" fill="#D74514" fill-rule="evenodd" fill-opacity="0.4"/><path d="M395 1076C395 645.77 743.77 297 1174 297 1604.23 297 1953 645.77 1953 1076 1953 1506.23 1604.23 1855 1174 1855 743.77 1855 395 1506.23 395 1076Z" fill="#D74514" fill-rule="evenodd" fill-opacity="0.4"/><path d="M753.276 1066.19 783.834 1066.19 783.834 1106.88C783.834 1108.71 784.78 1109.63 786.671 1109.63L789.427 1109.63C791.588 1109.63 792.831 1107.93 793.155 1104.53 793.371 1102.42 793.615 1098.99 793.885 1094.23 796.046 1095.2 798.073 1096.04 799.964 1096.74 799.64 1100.69 799.288 1104.01 798.91 1106.71 798.208 1112.55 795.29 1115.47 790.156 1115.47L784.563 1115.47C779.862 1115.47 777.512 1112.98 777.512 1108.01L777.512 1072.02 759.599 1072.02 759.599 1083.78C759.599 1098.47 754.33 1109.69 743.793 1117.41 743.036 1116.39 741.442 1114.79 739.011 1112.63 748.521 1106.04 753.276 1096.47 753.276 1083.94ZM730.338 1037.9 736.579 1037.9 736.579 1053.79 745.495 1053.79 745.495 1059.38 736.579 1059.38 736.579 1075.02C739.821 1074.02 743.091 1073 746.387 1071.94 746.387 1074.48 746.441 1076.59 746.549 1078.26 743.172 1079.32 739.848 1080.37 736.579 1081.42L736.579 1106.71C736.579 1112.77 733.85 1115.82 728.393 1115.87 726.555 1115.93 723.989 1115.93 720.692 1115.87 720.368 1113.6 720.017 1111.31 719.639 1108.98 722.665 1109.31 725.069 1109.47 726.853 1109.47 729.176 1109.47 730.338 1108.23 730.338 1105.74L730.338 1083.45C726.717 1084.64 723.151 1085.83 719.639 1087.02L718.828 1080.29C722.638 1079.21 726.474 1078.09 730.338 1076.93L730.338 1059.38 719.882 1059.38 719.882 1053.79 730.338 1053.79ZM768.839 1036.68C771.162 1040.57 773.081 1044.06 774.594 1047.14L769.325 1049.65 795.749 1049.65 795.749 1055.49 747.116 1055.49 747.116 1049.65 768.515 1049.65C766.515 1045.49 764.732 1042.09 763.165 1039.44Z" fill="#D74514" fill-rule="evenodd"/><text fill="#000000" fill-opacity="0" font-family="Arial,Arial_MSFontService,sans-serif" font-size="80.7305" x="718.828" y="1107.32">抗</text><text fill="#D74514" font-family="Microsoft YaHei,Microsoft YaHei_MSFontService,sans-serif" font-weight="700" font-size="83" transform="matrix(1 0 0 1 800.112 1106)">原像攻击</text><path d="M2108.48 1066.19 2139.03 1066.19 2139.03 1106.88C2139.03 1108.71 2139.98 1109.63 2141.87 1109.63L2144.63 1109.63C2146.79 1109.63 2148.03 1107.93 2148.36 1104.53 2148.57 1102.42 2148.81 1098.99 2149.08 1094.23 2151.25 1095.2 2153.27 1096.04 2155.16 1096.74 2154.84 1100.69 2154.49 1104.01 2154.11 1106.71 2153.41 1112.55 2150.49 1115.47 2145.36 1115.47L2139.76 1115.47C2135.06 1115.47 2132.71 1112.98 2132.71 1108.01L2132.71 1072.02 2114.8 1072.02 2114.8 1083.78C2114.8 1098.47 2109.53 1109.69 2098.99 1117.41 2098.24 1116.39 2096.64 1114.79 2094.21 1112.63 2103.72 1106.04 2108.48 1096.47 2108.48 1083.94ZM2085.54 1037.9 2091.78 1037.9 2091.78 1053.79 2100.7 1053.79 2100.7 1059.38 2091.78 1059.38 2091.78 1075.02C2095.02 1074.02 2098.29 1073 2101.59 1071.94 2101.59 1074.48 2101.64 1076.59 2101.75 1078.26 2098.37 1079.32 2095.05 1080.37 2091.78 1081.42L2091.78 1106.71C2091.78 1112.77 2089.05 1115.82 2083.59 1115.87 2081.76 1115.93 2079.19 1115.93 2075.89 1115.87 2075.57 1113.6 2075.22 1111.31 2074.84 1108.98 2077.86 1109.31 2080.27 1109.47 2082.05 1109.47 2084.38 1109.47 2085.54 1108.23 2085.54 1105.74L2085.54 1083.45C2081.92 1084.64 2078.35 1085.83 2074.84 1087.02L2074.03 1080.29C2077.84 1079.21 2081.67 1078.09 2085.54 1076.93L2085.54 1059.38 2075.08 1059.38 2075.08 1053.79 2085.54 1053.79ZM2124.04 1036.68C2126.36 1040.57 2128.28 1044.06 2129.79 1047.14L2124.53 1049.65 2150.95 1049.65 2150.95 1055.49 2102.32 1055.49 2102.32 1049.65 2123.71 1049.65C2121.72 1045.49 2119.93 1042.09 2118.36 1039.44Z" fill="#FFFFFF" fill-rule="evenodd"/><text fill="#000000" fill-opacity="0" font-family="Arial,Arial_MSFontService,sans-serif" font-size="80.7305" x="2074.03" y="1107.32">抗</text><text fill="#FFFFFF" font-family="Microsoft YaHei,Microsoft YaHei_MSFontService,sans-serif" font-weight="700" font-size="83" transform="matrix(1 0 0 1 2155.31 1106)">强碰撞攻击</text><path d="M2133.43 312.902 2163.99 312.902 2163.99 353.591C2163.99 355.428 2164.94 356.347 2166.83 356.347L2169.58 356.347C2171.74 356.347 2172.99 354.645 2173.31 351.241 2173.53 349.133 2173.77 345.702 2174.04 340.947 2176.2 341.919 2178.23 342.757 2180.12 343.459 2179.8 347.404 2179.44 350.727 2179.07 353.429 2178.36 359.265 2175.45 362.183 2170.31 362.183L2164.72 362.183C2160.02 362.183 2157.67 359.697 2157.67 354.726L2157.67 318.738 2139.75 318.738 2139.75 330.491C2139.75 345.189 2134.49 356.401 2123.95 364.128 2123.19 363.102 2121.6 361.508 2119.17 359.346 2128.68 352.754 2133.43 343.189 2133.43 330.653ZM2110.49 284.614 2116.74 284.614 2116.74 300.5 2125.65 300.5 2125.65 306.093 2116.74 306.093 2116.74 321.737C2119.98 320.737 2123.25 319.71 2126.54 318.657 2126.54 321.196 2126.6 323.304 2126.71 324.979 2123.33 326.033 2120 327.086 2116.74 328.14L2116.74 353.429C2116.74 359.481 2114.01 362.534 2108.55 362.588 2106.71 362.642 2104.14 362.642 2100.85 362.588 2100.52 360.319 2100.17 358.022 2099.79 355.699 2102.82 356.023 2105.23 356.185 2107.01 356.185 2109.33 356.185 2110.49 354.942 2110.49 352.456L2110.49 330.166C2106.87 331.355 2103.31 332.544 2099.79 333.733L2098.98 327.005C2102.79 325.925 2106.63 324.803 2110.49 323.641L2110.49 306.093 2100.04 306.093 2100.04 300.5 2110.49 300.5ZM2149 283.398C2151.32 287.288 2153.24 290.774 2154.75 293.854L2149.48 296.367 2175.91 296.367 2175.91 302.203 2127.27 302.203 2127.27 296.367 2148.67 296.367C2146.67 292.206 2144.89 288.801 2143.32 286.154Z" fill="#D74514" fill-rule="evenodd"/><text fill="#000000" fill-opacity="0" font-family="Arial,Arial_MSFontService,sans-serif" font-size="80.7305" x="2098.98" y="354.037">抗</text><path d="M2208.07 340.622C2207.91 343.27 2207.77 345.351 2207.67 346.864 2199.72 348.647 2191.51 350.646 2183.02 352.862L2182.29 346.377C2189.64 345.026 2198.24 343.108 2208.07 340.622ZM2248.11 339.082C2248 341.838 2247.92 344 2247.87 345.567 2241.01 347.35 2232.66 349.701 2222.82 352.619L2221.85 346.053C2231.04 343.892 2239.79 341.568 2248.11 339.082ZM2226.47 327.167C2231.06 328.897 2236.22 331.031 2241.95 333.571 2240.82 335.462 2239.79 337.272 2238.87 339.001 2234.33 336.732 2229.25 334.381 2223.63 331.95ZM2189.75 327.167C2194.24 329.005 2199.13 331.22 2204.42 333.814 2203.13 335.921 2202.02 337.759 2201.1 339.326 2196.18 336.516 2191.37 334.057 2186.67 331.95ZM2224.36 288.18 2256.22 288.18 2256.22 312.091 2250.14 312.091 2250.14 309.416 2231.66 309.416 2229.71 319.71 2258.65 319.71C2258.22 332.571 2257.76 342.595 2257.27 349.782 2256.89 358.373 2252.57 362.669 2244.3 362.669 2240.14 362.669 2236.41 362.588 2233.12 362.426 2232.85 360.373 2232.44 358.13 2231.9 355.699 2236.22 356.239 2240.17 356.509 2243.73 356.509 2248.38 356.509 2250.84 354.186 2251.11 349.538 2251.6 342.838 2251.97 334.759 2252.25 325.303L2222.82 325.303 2226.88 303.824 2250.14 303.824 2250.14 293.773 2224.36 293.773ZM2185.13 288.18 2217.31 288.18 2217.31 312.091 2211.23 312.091 2211.23 309.416 2193.56 309.416 2191.7 319.71 2217.63 319.71C2217.2 332.679 2216.77 342.811 2216.34 350.106 2215.96 358.536 2211.56 362.75 2203.13 362.75 2199.83 362.75 2196.16 362.669 2192.1 362.507 2191.83 360.022 2191.43 357.779 2190.89 355.78 2195.43 356.32 2199.34 356.59 2202.64 356.59 2207.45 356.59 2209.96 354.132 2210.18 349.214 2210.72 342.46 2211.1 334.489 2211.31 325.303L2184.89 325.303 2188.78 303.824 2211.23 303.824 2211.23 293.773 2185.13 293.773Z" fill="#D74514" fill-rule="evenodd"/><text fill="#000000" fill-opacity="0" font-family="Arial,Arial_MSFontService,sans-serif" font-size="74.5703" x="2182.29" y="353.429">弱</text><text fill="#D74514" font-family="Microsoft YaHei,Microsoft YaHei_MSFontService,sans-serif" font-weight="700" font-size="83" transform="matrix(1 0 0 1 2262.77 353)">碰撞攻击</text></g></svg>
